X: 3
T:Constant Billy, Ilmington (RKS)
M:6/8
L:1/8
S:RKS
A:Ilmington
P:A(AB2)4
K:G
P:A
|:D|G2d BGB|c2A AFD|BAF  E>FG|D>EF  G2:|
P:B
  z|c2d ecA|B2c dBG|B>cd e>fg|A>B^c d2D|
G2d BGB|c2A AFD|BAF  E>FG|D>EF  G2||
